X:627
T: Zhiwen Jiangjieshi
N: C2146
O: China,Hebei Baxian
S: IV, 46]
R: Xiaodiao]
M: 2/4
L: 1/16
K: F
A2A2A2GA | G2E2D4 | dddcd2A2 | c4c4 |
d2dcA3c | d2dcA4 | c2c2d2A2 | G2E2D4 |
A2A2A2GA | G2E2D4 | dddcd2A2 | c4c4 |
d2dcA2Ac | d2dcA4 | c2c2d2A2 | G2E2D4 |
A3AA2A2 | G2E2D4 | dddcd2A2 | c4c4 |
F2F4G2 | A2c2d4 | c2AcG2E2 | D4z4

@@@ Tune index: 7182
